src/assets/help.svg

<svg width="14" height="15" viewBox="0 0 14 15" fill="none" xmlns="http://www.w3.org/2000/svg">
<path d="M6.3335 11.4999H7.66683V10.1666H6.3335V11.4999ZM7.00016 0.833252C3.32016 0.833252 0.333496 3.81992 0.333496 7.49992C0.333496 11.1799 3.32016 14.1666 7.00016 14.1666C10.6802 14.1666 13.6668 11.1799 13.6668 7.49992C13.6668 3.81992 10.6802 0.833252 7.00016 0.833252ZM7.00016 12.8333C4.06016 12.8333 1.66683 10.4399 1.66683 7.49992C1.66683 4.55992 4.06016 2.16659 7.00016 2.16659C9.94016 2.16659 12.3335 4.55992 12.3335 7.49992C12.3335 10.4399 9.94016 12.8333 7.00016 12.8333ZM7.00016 3.49992C5.52683 3.49992 4.3335 4.69325 4.3335 6.16659H5.66683C5.66683 5.43325 6.26683 4.83325 7.00016 4.83325C7.7335 4.83325 8.3335 5.43325 8.3335 6.16659C8.3335 7.49992 6.3335 7.33325 6.3335 9.49992H7.66683C7.66683 7.99992 9.66683 7.83325 9.66683 6.16659C9.66683 4.69325 8.4735 3.49992 7.00016 3.49992Z" fill="#4A53F5"/>
</svg>

<svg width="14" height="15" fill="none" xmlns="http://www.w3.org/2000/svg" viewBox="0 0 14 15"><path d="M6.333 11.5h1.334v-1.333H6.334V11.5ZM7 .833A6.67 6.67 0 0 0 .333 7.5 6.67 6.67 0 0 0 7 14.167 6.67 6.67 0 0 0 13.667 7.5 6.67 6.67 0 0 0 7 .833Zm0 12A5.34 5.34 0 0 1 1.667 7.5 5.34 5.34 0 0 1 7 2.167 5.34 5.34 0 0 1 12.334 7.5 5.34 5.34 0 0 1 7 12.833ZM7 3.5a2.666 2.666 0 0 0-2.667 2.667h1.334c0-.734.6-1.334 1.333-1.334.734 0 1.334.6 1.334 1.334 0 1.333-2 1.166-2 3.333h1.333c0-1.5 2-1.667 2-3.333A2.666 2.666 0 0 0 7 3.5Z" fill="#4A53F5"/></svg>
